X: 23837
T: Little Tail, The
R: waltz
M: 3/4
K: Gmajor
D GA|:B3G Bd|c3A ce|dG Bd g/a/b|e4zf|
g>f ef g/f/e|d2B3d|ed cB AG|A3B cA|
B3G Bd|c3A ce|dG Bd g/a/b|e4zf|
g>f ef g/f/e|d2 B3G|ec AE GF|1 G3A AG:|2 G4 ef||
|:g>f ef gb|f2 d3B|ed cd eg|d2 GA AG|
ed cB cA|B3A GD|E2 A3B|A3B cA|
B3G Bd|c3A ce|dG Bd g/a/b|e4zf|
g>f ef g/f/e|d2 B3G|ec AE GF|1 G4 ef:|2 G3||

